frontend/svgs/tip_circle3.svg

<svg xmlns="http://www.w3.org/2000/svg" preserveAspectRatio="none" viewBox="-0.5 -0.5 101 101"><path class="svg_main_path" d="M0 50C0 22.39 22.39 0 50 0c13.26 0 25.98 5.27 35.36 14.64A50.042 50.042 0 01100 50c0 13.26-5.27 25.98-14.64 35.36A50.042 50.042 0 0150 100c-13.26 0-25.98-5.27-35.36-14.64A50.042 50.042 0 010 50zm50-25c-13.81 0-25 11.19-25 25s11.19 25 25 25 25-11.19 25-25-11.19-25-25-25z" fill="#f7f7c6" stroke="#000" stroke-miterlimit="10" pointer-events="all"/></svg>

<svg xmlns="http://www.w3.org/2000/svg" xmlns:xlink="http://www.w3.org/1999/xlink" version="1.1" preserveAspectRatio="none" viewBox="-0.5 -0.5 101 101"><defs/><g><path class="svg_main_path" d="M 0 50 C 0 22.39 22.39 0 50 0 C 63.26 0 75.98 5.27 85.36 14.64 C 94.73 24.02 100 36.74 100 50 C 100 63.26 94.73 75.98 85.36 85.36 C 75.98 94.73 63.26 100 50 100 C 36.74 100 24.02 94.73 14.64 85.36 C 5.27 75.98 0 63.26 0 50 Z M 50 25 C 36.19 25 25 36.19 25 50 C 25 63.81 36.19 75 50 75 C 63.81 75 75 63.81 75 50 C 75 36.19 63.81 25 50 25 Z" fill="#f7f7c6" stroke="#000000" stroke-miterlimit="10" pointer-events="all"/></g></svg>
